X: 0
T: The Sinner's Redemption
Z: Collected by Cecil Sharp
Z: Copyright © 2004 by Douglas D. Anderson
Z: Released To The Public Domain
L: 1/4
M: 3/2
Q: 1/4=280
V: P1 name="Staff"
%%MIDI program 1 19
K: Bb
[V: P1] "^Verse 1" F | D D B2 A G | F G D3 A | B c d2 G F | G A B3 c | d d c2 (B3/ G/) | F G (D/ =E/ F2) E | D C F3 G | A B G3"^Verse 2" F | D D B2 A G | F G D3 A | B c d2 G F | G A B3 c | d d c2 (B3/ G/) | F G (D/ =E/ F2) E | D C F3 G | A B G3|]
w: All you that are un- to mirth in- clined, Con- si der well and do bear in mind What our great God for_ us hath done__ In send- ing His be- lov ed Son. Let all your songs and your pra- ises be Un- to His hea- ven ly Ma- jes ty; And e- ver more, a-_ mongst your mirth,__ Re- mem ber Christ our Sa- viour's birth.

